inst/assets/svg/wi-moon-alt-waxing-gibbous-2.svg

<?xml version="1.0" encoding="UTF-8"?>
<svg xmlns="http://www.w3.org/2000/svg" xmlns:xlink="http://www.w3.org/1999/xlink" width="30pt" height="30pt" viewBox="0 0 30 30" version="1.1">
<g id="surface421">
<path style=" stroke:none;fill-rule:nonzero;fill:rgb(0%,0%,0%);fill-opacity:1;" d="M 3.738281 14.441406 C 3.738281 12.921875 4.039063 11.460938 4.628906 10.070313 C 5.21875 8.679688 6.03125 7.488281 7.03125 6.480469 C 8.03125 5.46875 9.230469 4.671875 10.621094 4.078125 C 12.011719 3.488281 13.460938 3.191406 14.988281 3.191406 C 16.519531 3.191406 17.96875 3.488281 19.359375 4.078125 C 20.75 4.671875 21.949219 5.480469 22.960938 6.480469 C 23.96875 7.480469 24.769531 8.679688 25.359375 10.070313 C 25.949219 11.460938 26.25 12.910156 26.25 14.441406 C 26.25 15.96875 25.949219 17.421875 25.359375 18.808594 C 24.769531 20.199219 23.960938 21.398438 22.960938 22.410156 C 21.960938 23.421875 20.761719 24.21875 19.359375 24.808594 C 17.960938 25.398438 16.511719 25.699219 14.988281 25.699219 C 13.46875 25.699219 12.011719 25.398438 10.621094 24.808594 C 9.230469 24.21875 8.039063 23.410156 7.03125 22.410156 C 6.019531 21.410156 5.21875 20.210938 4.628906 18.808594 C 4.039063 17.410156 3.738281 15.96875 3.738281 14.441406 Z M 11.960938 14.441406 C 11.960938 18.589844 12.769531 21.941406 14.378906 24.488281 C 14.53125 24.5 14.730469 24.5 15 24.5 C 16.371094 24.5 17.671875 24.230469 18.910156 23.699219 C 20.148438 23.171875 21.21875 22.449219 22.121094 21.550781 C 23.019531 20.648438 23.730469 19.578125 24.269531 18.339844 C 24.808594 17.101563 25.070313 15.800781 25.070313 14.429688 C 25.070313 13.070313 24.800781 11.769531 24.269531 10.53125 C 23.738281 9.289063 23.019531 8.21875 22.121094 7.320313 C 21.21875 6.421875 20.148438 5.710938 18.910156 5.171875 C 17.671875 4.628906 16.371094 4.371094 15 4.371094 C 14.769531 4.371094 14.578125 4.371094 14.460938 4.378906 C 12.789063 7.550781 11.960938 10.898438 11.960938 14.441406 Z M 11.960938 14.441406 "/>
</g>
</svg>

<?xml version="1.0" encoding="utf-8"?>
<!-- Generator: Adobe Illustrator 22.0.1, SVG Export Plug-In . SVG Version: 6.00 Build 0)  -->
<svg version="1.1" id="Layer_1" xmlns="http://www.w3.org/2000/svg" xmlns:xlink="http://www.w3.org/1999/xlink" x="0px" y="0px"
	 viewBox="0 0 30 30" style="enable-background:new 0 0 30 30;" xml:space="preserve">
<path d="M3.74,14.44c0-1.52,0.3-2.98,0.89-4.37s1.4-2.58,2.4-3.59s2.2-1.81,3.59-2.4s2.84-0.89,4.37-0.89s2.98,0.3,4.37,0.89
	s2.59,1.4,3.6,2.4s1.81,2.2,2.4,3.59s0.89,2.84,0.89,4.37s-0.3,2.98-0.89,4.37s-1.4,2.59-2.4,3.6s-2.2,1.81-3.6,2.4
	s-2.85,0.89-4.37,0.89s-2.98-0.3-4.37-0.89s-2.58-1.4-3.59-2.4s-1.81-2.2-2.4-3.6S3.74,15.97,3.74,14.44z M11.96,14.44
	c0,4.15,0.81,7.5,2.42,10.05c0.15,0.01,0.35,0.01,0.62,0.01c1.37,0,2.67-0.27,3.91-0.8s2.31-1.25,3.21-2.15s1.61-1.97,2.15-3.21
	s0.8-2.54,0.8-3.91c0-1.36-0.27-2.66-0.8-3.9s-1.25-2.31-2.15-3.21s-1.97-1.61-3.21-2.15s-2.54-0.8-3.91-0.8
	c-0.23,0-0.42,0-0.54,0.01C12.79,7.55,11.96,10.9,11.96,14.44z"/>
</svg>
